static/assets/img/icons/theme/food/bottle-1.svg

<svg height="24" viewBox="0 0 24 24" width="24" xmlns="http://www.w3.org/2000/svg"><g fill="none" fill-rule="evenodd"><path d="m0 0h24v24h-24z" opacity="0"/><g fill="#000"><path d="m6.2 9.73333333 2.5-3.33333333c.18885438-.25180584.4852427-.4.8-.4h5c.3147573 0 .6111456.14819416.8.4l2.5 3.33333333c.1298221.17309617.2.38362977.2.59999997v10.6666667c0 1.1045695-.8954305 2-2 2h-8c-1.1045695 0-2-.8954305-2-2v-10.6666667c0-.2163702.07017787-.4269038.2-.59999997zm2.8 2.26666667c-.55228475 0-1 .4477153-1 1v7c0 .5522847.44771525 1 1 1h1c.5522847 0 1-.4477153 1-1v-7c0-.5522847-.4477153-1-1-1z"/><rect height="3" opacity=".3" rx="1" width="6" x="9" y="1"/></g></g></svg>

<svg width="24px" height="24px" viewBox="0 0 24 24" version="1.1" xmlns="http://www.w3.org/2000/svg" xmlns:xlink="http://www.w3.org/1999/xlink">
    <title>Icon For Bottle#1</title>
    <g stroke="none" stroke-width="1" fill="none" fill-rule="evenodd">
        <rect opacity="0" x="0" y="0" width="24" height="24"></rect>
        <path d="M6.2,9.73333333 L8.7,6.4 C8.88885438,6.14819416 9.1852427,6 9.5,6 L14.5,6 C14.8147573,6 15.1111456,6.14819416 15.3,6.4 L17.8,9.73333333 C17.9298221,9.9064295 18,10.1169631 18,10.3333333 L18,21 C18,22.1045695 17.1045695,23 16,23 L8,23 C6.8954305,23 6,22.1045695 6,21 L6,10.3333333 C6,10.1169631 6.07017787,9.9064295 6.2,9.73333333 Z M9,12 C8.44771525,12 8,12.4477153 8,13 L8,20 C8,20.5522847 8.44771525,21 9,21 L10,21 C10.5522847,21 11,20.5522847 11,20 L11,13 C11,12.4477153 10.5522847,12 10,12 L9,12 Z" fill="#000000"></path>
        <rect fill="#000000" opacity="0.3" x="9" y="1" width="6" height="3" rx="1"></rect>
    </g>
</svg>
